X:1225
T:Irish Reel III
T:Teetotaller Reel
T:Temperance Reel
B:Kerr's Merry Melodies, Bk.2, p32
Z:Nigel Gatherer
M:4/4
L:1/8
K:F
FD|CF (3FFF FGAB|cAdB cAGF|A>D (3DDD DEFG|AFGE FDCA,|
CF (3FFF FGAB|cAdB cAGF|A>D (3DDD DEFG|AFGE F2|]
z2|A>d (3ddd d3 f|efge fedc|A>c (3ccc c3 d|efge fedc|
A>d (3ddd d3 f|efge fedc|ABcA GECD|EDD^C D2|]
